shared/images/iconfont/46-kb-iconfont-identity-devices-16.svg

<svg height="16" viewBox="0 0 16 16" width="16" xmlns="http://www.w3.org/2000/svg"><path d="m11.889 0h-7.779c-.613 0-1.11.597-1.11 1.333v13.334c0 .736.497 1.333 1.111 1.333h7.778c.614 0 1.111-.597 1.111-1.333v-13.334c0-.736-.497-1.333-1.111-1.333zm-3.889 14.5a1 1 0 1 1 0-2 1 1 0 0 1 0 2zm3-3.5h-6v-9h6z"/></svg>

<svg xmlns="http://www.w3.org/2000/svg" width="16" height="16" viewBox="0 0 16 16">
    <path fill="#000" fill-rule="nonzero" d="M11.889 0H4.11C3.497 0 3 .597 3 1.333v13.334C3 15.403 3.497 16 4.111 16h7.778c.614 0 1.111-.597 1.111-1.333V1.333C13 .597 12.503 0 11.889 0zM8 14.5a1 1 0 1 1 0-2 1 1 0 0 1 0 2zm3-3.5H5V2h6v9z"/>
</svg>
